X:1
T:[ID 1-23]
T:[ID 1-23]
T:Bezeichnung standardisiert: Menuett Men\"uet \"Ahnlich in anderer Quelle: Menuet -  J. Hanekuijk 1703 (Anm. S. Wascher);
T:Urheber unbekannt Erstbeleg: 1703 (Datum in der schriftlichen Quelle) Datum in der hier transkribierten schriftlichen Quelle: vermutlich vor 1767
C:Urheber unbekannt
C:Erstbeleg: 1703 (Datum in der schriftlichen Quelle)
C:Datum in der hier transkribierten schriftlichen Quelle: vermutlich vor 1767
L:1/8
M:4/4
K:Dmin
V:1 treble 
V:1
 d4 ^c2 | d2 f2 e2 | d2 ^c2 d2 | edef e2 | A4 G2 | F2 f2 F2 | E2 d2 ^c2 | d6 :: A2 ABAB | c3 B A2 | %10
 F2 G2 A2 | F3 E D2 | A2 ABAB | c3 B A2 | FG"^[sic]" G3 FE | F6 | f2 f2 g2 | e2 e2 a2 | d2 d2 e2 | %19
 ^c3 ^B A2 | d2 cBAG | F2 FG A2 | D2 d2 ^c2 | d6 :|S x8 | %25

